assets/icons/thumb-down.svg

<?xml version="1.0" encoding="UTF-8"?>
<svg width="1024px" height="1024px" viewBox="0 0 1024 1024" version="1.1" xmlns="http://www.w3.org/2000/svg" xmlns:xlink="http://www.w3.org/1999/xlink">
    <!-- Generator: Sketch 50.2 (55047) - http://www.bohemiancoding.com/sketch -->
    <title>Artboard</title>
    <desc>Created with Sketch.</desc>
    <defs></defs>
    <g id="Artboard" stroke="none" stroke-width="1" fill="none" fill-rule="evenodd">
        <path d="M205.57068,640.020171 L32.1203024,640.020171 C13.918852,640.020171 -2.37469127e-15,625.195452 0,605.804626 L6.71827862e-14,57.2155449 C6.95571925e-14,37.8270464 13.918852,23 32.1203024,23 L205.57068,23 C223.77227,23 237.691215,37.8270464 237.691215,57.2155449 L237.691215,605.804626 C237.691215,625.195452 223.77227,640.020171 205.57068,640.020171 Z M118.845608,82.3081857 C88.8663949,82.3081857 65.3116151,108.538862 65.3116151,139.333318 C65.3116151,171.268137 89.9371725,196.35845 118.845608,196.35845 C147.75381,196.35845 172.3796,170.127774 172.3796,139.333318 C172.3796,108.538862 148.824588,82.3081857 118.845608,82.3081857 Z M1023.57122,567.027629 C1029.99449,643.443587 962.540854,666.253175 935.774905,666.253175 L625.27733,666.253175 C640.267285,700.46872 658.468875,791.710328 635.985106,918.308076 C626.347875,968.490798 599.581926,1001.56594 564.249291,1000.42542 C536.41047,1000.42542 508.573976,976.474503 506.432886,947.961471 C503.218924,916.026885 495.72511,870.406081 489.301841,839.612091 C466.815744,740.386079 347.9713,609.228042 273.02385,563.60654 L273.02385,78.8847694 C324.416986,48.0903135 379.021756,37.8270464 438.97925,38.9674094 C532.12829,41.2481355 799.799416,38.9674094 847.97859,40.1077724 C882.24068,40.1077724 916.50277,57.2155449 932.563271,101.696684 C955.04704,162.142906 897.230635,191.796998 897.230635,191.796998 C897.230635,191.796998 960.399764,188.375909 975.38972,248.822131 C990.379675,310.411042 931.492726,335.501356 931.492726,335.501356 C971.10754,340.065135 995.7324,351.468765 1005.36963,389.107727 C1016.07508,433.586539 989.30913,466.66172 947.553226,486.050219 C952.90595,484.909856 1017.14562,496.315813 1023.57122,567.027629 Z" id="Shape" fill="#000000" fill-rule="nonzero"></path>
    </g>
</svg>

<svg width="1024" height="1024" xmlns="http://www.w3.org/2000/svg"><path d="M205.57 640.02H32.12C13.92 640.02 0 625.195 0 605.805V57.215C0 37.828 13.919 23 32.12 23h173.45c18.202 0 32.121 14.827 32.121 34.216v548.589c0 19.39-13.919 34.215-32.12 34.215zM118.847 82.308c-29.98 0-53.534 26.23-53.534 57.025 0 31.935 24.625 57.025 53.534 57.025 28.908 0 53.534-26.23 53.534-57.025 0-30.794-23.555-57.025-53.534-57.025zm904.725 484.72c6.423 76.416-61.03 99.225-87.796 99.225H625.277c14.99 34.216 33.192 125.457 10.708 252.055-9.637 50.183-36.403 83.258-71.736 82.117-27.839 0-55.675-23.95-57.816-52.464-3.214-31.934-10.708-77.555-17.131-108.349-22.486-99.226-141.33-230.384-216.278-276.005V78.885c51.393-30.795 105.998-41.058 165.955-39.918 93.15 2.281 360.82 0 409 1.14 34.262 0 68.524 17.109 84.584 61.59 22.484 60.446-35.332 90.1-35.332 90.1s63.169-3.421 78.159 57.025c14.99 61.589-43.897 86.68-43.897 86.68 39.615 4.563 64.24 15.967 73.877 53.606 10.705 44.479-16.06 77.554-57.817 96.942 5.353-1.14 69.593 10.266 76.018 80.978z" fill="#000" fill-rule="nonzero"/></svg>
